apps/www/public/images/logos/publicity/fixed-width/loops.svg

<svg width="180" height="60" viewBox="0 0 180 60" fill="none" xmlns="http://www.w3.org/2000/svg">
<path d="M51.0081 17.9313H47.7635C45.0007 17.9346 42.352 19.0337 40.3987 20.9875C38.4453 22.9413 37.3468 25.5903 37.3442 28.353C37.3475 31.1154 38.4463 33.7637 40.3996 35.717C42.3528 37.6702 45.0011 38.769 47.7635 38.7723H51.0204C53.7832 38.7697 56.4321 37.6712 58.3859 35.7178C60.3397 33.7645 61.4389 31.1158 61.4421 28.353C61.4395 25.5877 60.339 22.9365 58.3824 20.9823C56.4259 19.0281 53.7734 17.9307 51.0081 17.9313ZM38.6337 28.353C38.6337 25.9336 39.5948 23.6133 41.3056 21.9025C43.0164 20.1918 45.3367 19.2307 47.7561 19.2307C48.2657 19.2307 48.7746 19.2726 49.2773 19.3564C51.4055 19.7084 53.3389 20.8065 54.7312 22.4541C56.1235 24.1016 56.8838 26.191 56.876 28.3481C56.8735 29.7333 56.3815 31.073 55.4868 32.1305C54.5922 33.1881 53.3525 33.8953 51.9869 34.1273C52.8966 33.4631 53.6364 32.5935 54.1463 31.5892C54.6562 30.5849 54.9216 29.4744 54.9209 28.3481C54.9236 26.7591 54.397 25.2145 53.4241 23.9581C52.4513 22.7017 51.0876 21.8052 49.5485 21.4102C48.9631 21.2589 48.3608 21.1826 47.7561 21.1833C45.859 21.1892 44.0416 21.9464 42.7015 23.2892C41.3615 24.632 40.6081 26.4511 40.6061 28.3481C40.6013 30.1086 41.0437 31.8414 41.892 33.384C42.7403 34.9266 43.9666 36.2284 45.4558 37.1672C43.5067 36.6554 41.7816 35.5135 40.5491 33.9193C39.3165 32.3252 38.6457 30.3681 38.6411 28.353H38.6337ZM49.3809 22.7243C50.6018 23.0759 51.6751 23.8153 52.4388 24.8307C53.2025 25.8461 53.6151 27.0825 53.6141 28.353C53.6145 29.6232 53.2017 30.859 52.4381 31.8739C51.6744 32.8888 50.6014 33.6278 49.3809 33.9793C48.1603 33.6278 47.0873 32.8888 46.3236 31.8739C45.56 30.859 45.1472 29.6232 45.1476 28.353C45.1467 27.0825 45.5592 25.8461 46.3229 24.8307C47.0866 23.8153 48.1599 23.0759 49.3809 22.7243ZM51.0081 37.4705H50.9711C50.4755 37.4678 49.9808 37.4257 49.4918 37.3448C47.4163 37.0006 45.5248 35.9462 44.1406 34.3619C42.7564 32.7776 41.9655 30.7617 41.903 28.6588V28.353C41.9045 26.9676 42.3962 25.6274 43.291 24.5697C44.1858 23.512 45.426 22.805 46.7921 22.5739C45.882 23.2378 45.1416 24.1073 44.6313 25.1116C44.121 26.1159 43.8552 27.2265 43.8556 28.353C43.8534 29.9416 44.3802 31.4857 45.3531 32.7416C46.3259 33.9975 47.6893 34.8936 49.228 35.2885C49.8131 35.4409 50.4156 35.5173 51.0204 35.5153C52.9196 35.5134 54.7405 34.7582 56.0836 33.4155C57.4268 32.0728 58.1826 30.2522 58.1852 28.353C58.1907 26.5925 57.7485 24.8594 56.9001 23.3167C56.0518 21.774 54.8252 20.4723 53.3355 19.5339C55.2841 20.0463 57.0083 21.1895 58.2388 22.7849C59.4694 24.3803 60.1371 26.3382 60.1379 28.353C60.1372 29.5512 59.9005 30.7375 59.4413 31.8442C58.9821 32.9509 58.3094 33.9562 57.4616 34.8029C56.6138 35.6496 55.6075 36.3209 54.5002 36.7786C53.3929 37.2363 52.2063 37.4714 51.0081 37.4705Z" fill="#7E7E7E"/>
<path d="M82.3028 36.9552H67.4629V35.2811C69.2923 34.9729 69.6523 34.3294 69.6523 33.7106V23.2248C69.6523 22.0413 69.2923 21.5507 67.4629 21.4225V19.7484H76.7899V21.4225C74.9605 21.5507 74.6005 22.0413 74.6005 23.2248V34.3196C74.6005 34.936 74.7805 35.3748 76.3264 35.3748H78.0005C78.9522 35.3748 80.0863 34.9113 80.8851 32.3866H82.5592L82.3028 36.9552ZM83.6416 30.6435C83.6416 26.4719 86.6569 23.3801 90.9321 23.3801C95.4415 23.3801 98.0426 26.4201 98.0426 30.1282C98.0426 34.2777 94.978 37.3176 90.7792 37.3176C86.1934 37.3176 83.6416 34.3541 83.6416 30.6435ZM93.2003 31.5977C93.2003 27.5024 91.7827 25.0542 90.3921 25.0542C89.078 25.0542 88.5381 26.7036 88.5381 29.073C88.5381 33.2471 89.9804 35.6436 91.3438 35.6436C92.6357 35.6436 93.2003 34.0188 93.2003 31.5977ZM99.6403 30.6435C99.6403 26.4719 102.656 23.3801 106.931 23.3801C111.44 23.3801 114.041 26.4201 114.041 30.1282C114.041 34.2777 110.977 37.3176 106.775 37.3176C102.192 37.3176 99.6403 34.3541 99.6403 30.6435ZM109.199 31.5977C109.199 27.5024 107.781 25.0542 106.391 25.0542C105.077 25.0542 104.534 26.7036 104.534 29.073C104.534 33.2471 105.979 35.6436 107.342 35.6436C108.632 35.6436 109.199 34.0188 109.199 31.5977ZM129.944 29.9236C129.944 34.4305 127.215 37.3201 123.272 37.3201C122.477 37.3347 121.687 37.1853 120.952 36.8812V38.7871C120.952 39.7412 121.339 40.1283 123.092 40.3847V42.0687H114.668V40.3946C116.006 40.0864 116.162 39.7511 116.162 38.7969V27.4556C116.162 26.785 115.93 26.3979 115.079 26.0133L114.668 25.8333V24.4921L119.922 23.385H120.952V25.0345C121.278 24.5184 121.731 24.0954 122.269 23.8064C122.806 23.5173 123.409 23.3722 124.019 23.385C128.114 23.3801 129.944 26.536 129.944 29.9236ZM124.998 30.8506C124.998 28.1706 124.258 25.853 122.473 25.853C121.699 25.853 121.571 25.8012 120.952 26.2648V31.4423C120.952 34.5094 121.445 35.4118 122.782 35.4118C124.019 35.4118 124.998 33.8906 124.998 30.8506ZM142.395 24.8989L140.025 28.1459C138.891 25.8777 137.806 24.926 136.522 24.926C135.748 24.926 134.744 25.3895 134.744 26.1883C134.744 28.9004 142.806 27.14 142.654 33.1189C142.575 35.2811 140.489 37.3102 136.882 37.3102C133.738 37.3102 131.112 35.7372 130.471 35.1702L133.255 32.2609C134.801 34.682 136.063 35.7644 137.298 35.7644C137.942 35.7644 139.076 35.4808 139.103 34.2185C139.103 31.3067 131.142 33.6514 131.167 27.8082C131.167 25.0517 133.46 23.3702 137.118 23.3702C139.998 23.3801 141.855 24.3836 142.395 24.8989Z" fill="#7E7E7E"/>
</svg>

<svg xmlns="http://www.w3.org/2000/svg" width="180" height="60" fill="none" viewBox="0 0 180 60"><path fill="#7e7e7e" d="M51.008 17.931h-3.245a10.43 10.43 0 0 0-10.419 10.422 10.43 10.43 0 0 0 10.42 10.42h3.256a10.43 10.43 0 0 0 10.422-10.42 10.43 10.43 0 0 0-10.434-10.422M38.634 28.353a9.122 9.122 0 0 1 10.643-8.997 9.08 9.08 0 0 1 7.599 8.992 5.87 5.87 0 0 1-4.89 5.78 7.15 7.15 0 0 0 2.935-5.78 7.15 7.15 0 0 0-7.165-7.165 7.173 7.173 0 0 0-7.15 7.165 10.39 10.39 0 0 0 4.85 8.82 9.134 9.134 0 0 1-6.815-8.815zm10.747-5.629a5.85 5.85 0 0 1 4.233 5.629 5.85 5.85 0 0 1-4.233 5.626 5.85 5.85 0 0 1-4.233-5.626 5.85 5.85 0 0 1 4.233-5.629m1.627 14.747h-.037a9.4 9.4 0 0 1-1.48-.126 9.08 9.08 0 0 1-7.588-8.686v-.306a5.87 5.87 0 0 1 4.89-5.78 7.15 7.15 0 0 0-2.937 5.78 7.15 7.15 0 0 0 5.372 6.935 7.172 7.172 0 0 0 8.957-6.935 10.38 10.38 0 0 0-4.85-8.82 9.12 9.12 0 0 1 6.803 8.82 9.123 9.123 0 0 1-9.13 9.118M82.303 36.955h-14.84v-1.674c1.83-.308 2.19-.952 2.19-1.57V23.225c0-1.184-.36-1.674-2.19-1.803v-1.674h9.327v1.674c-1.83.129-2.19.62-2.19 1.803V34.32c0 .616.18 1.055 1.726 1.055h1.675c.951 0 2.085-.464 2.884-2.988h1.674zm1.339-6.311c0-4.172 3.015-7.264 7.29-7.264 4.51 0 7.11 3.04 7.11 6.748 0 4.15-3.064 7.19-7.263 7.19-4.586 0-7.137-2.964-7.137-6.674m9.558.954c0-4.096-1.417-6.544-2.808-6.544-1.314 0-1.854 1.65-1.854 4.019 0 4.174 1.442 6.57 2.806 6.57 1.292 0 1.856-1.624 1.856-4.045m6.44-.954c0-4.172 3.016-7.264 7.291-7.264 4.509 0 7.11 3.04 7.11 6.748 0 4.15-3.064 7.19-7.266 7.19-4.583 0-7.135-2.964-7.135-6.674m9.559.954c0-4.096-1.418-6.544-2.808-6.544-1.314 0-1.857 1.65-1.857 4.019 0 4.174 1.445 6.57 2.808 6.57 1.29 0 1.857-1.624 1.857-4.045m20.745-1.674c0 4.507-2.729 7.396-6.672 7.396a5.8 5.8 0 0 1-2.32-.439v1.906c0 .954.387 1.341 2.14 1.598v1.684h-8.424v-1.674c1.338-.309 1.494-.644 1.494-1.598V27.456c0-.671-.232-1.058-1.083-1.443l-.411-.18v-1.34l5.254-1.108h1.03v1.65a3.54 3.54 0 0 1 3.067-1.65c4.095-.005 5.925 3.151 5.925 6.539m-4.946.927c0-2.68-.74-4.998-2.525-4.998-.774 0-.902-.052-1.521.412v5.177c0 3.067.493 3.97 1.83 3.97 1.237 0 2.216-1.521 2.216-4.561m17.397-5.952-2.37 3.247c-1.134-2.268-2.219-3.22-3.503-3.22-.774 0-1.778.464-1.778 1.262 0 2.712 8.062.952 7.91 6.93-.079 2.163-2.165 4.192-5.772 4.192-3.144 0-5.77-1.573-6.411-2.14l2.784-2.91c1.546 2.422 2.808 3.504 4.043 3.504.644 0 1.778-.283 1.805-1.546 0-2.911-7.961-.567-7.936-6.41 0-2.756 2.293-4.438 5.951-4.438 2.88.01 4.737 1.014 5.277 1.529"/></svg>
